Adwaita++-Dark/actions/22/configure.svg

<svg height="22" width="22" xmlns="http://www.w3.org/2000/svg">
  <g fill="#e6ddff">
    <path clip-rule="evenodd" d="m5 7v10h12v-10zm-1-4c-.55228 0-1 .44772-1 1v14c0 .5523.44772 1 1 1h14c.5523 0 1-.4477 1-1v-14c0-.55228-.4477-1-1-1z" fill-rule="evenodd"/>
    <path d="m6 8h4v8h-4z"/>
    <path d="m11 8h5v2h-5z"/>
    <path d="m11 11h4v2h-4z"/>
    <path d="m11 14h3v2h-3z"/>
  </g>
</svg>

<svg xmlns="http://www.w3.org/2000/svg" width="22" height="22" version="1.1">
 <path fill="#E6DDFF" fill-rule="evenodd" d="M5 7V17H17V7H5ZM4 3C3.44772 3 3 3.44772 3 4V18C3 18.5523 3.44772 19 4 19H18C18.5523 19 19 18.5523 19 18V4C19 3.44772 18.5523 3 18 3H4Z" clip-rule="evenodd"/>
 <rect fill="#E6DDFF" width="4" height="8" x="6" y="8"/>
 <rect fill="#E6DDFF" width="5" height="2" x="11" y="8"/>
 <rect fill="#E6DDFF" width="4" height="2" x="11" y="11"/>
 <rect fill="#E6DDFF" width="3" height="2" x="11" y="14"/>
</svg>
